Target/Image/GitHub/Astro.svg

<svg xmlns="http://www.w3.org/2000/svg" width="1280" height="1280" fill="none"><path fill="url(#a)" fill-rule="evenodd" d="M815.039 94.644c9.719 12.065 14.675 28.346 24.587 60.909l216.544 711.348c-80.063-41.533-167.098-71.488-258.889-87.649L656.29 302.798a18.351 18.351 0 0 0-35.21.055L481.795 779.011c-92.216 16.089-179.649 46.098-260.054 87.782l217.606-711.405h.001c9.943-32.506 14.914-48.759 24.634-60.803A80 80 0 0 1 496.4 70.6c14.36-5.772 31.356-5.772 65.349-5.772h155.425c34.038 0 51.056 0 65.429 5.784a80 80 0 0 1 32.436 24.032" clip-rule="evenodd"/><path fill="#FF5D01" fill-rule="evenodd" d="M840.951 900.754c-35.698 30.525-106.949 51.343-189.022 51.343-100.732 0-185.162-31.36-207.566-73.536-8.009 24.171-9.805 51.835-9.805 69.507 0 0-5.277 86.772 55.078 147.132 0-31.34 25.406-56.74 56.745-56.74 53.716 0 53.655 46.86 53.606 84.88l-.003 3.39c0 57.71 35.271 107.18 85.432 128.04-7.492-15.41-11.695-32.72-11.695-51 0-55.04 32.313-75.54 69.867-99.36 29.881-18.95 63.08-40 85.96-82.24 11.938-22.04 18.717-47.277 18.717-74.102 0-16.495-2.563-32.392-7.314-47.314" clip-rule="evenodd"/><path fill="url(#b)" fill-rule="evenodd" d="M840.951 900.754c-35.698 30.525-106.949 51.343-189.022 51.343-100.732 0-185.162-31.36-207.566-73.536-8.009 24.171-9.805 51.835-9.805 69.507 0 0-5.277 86.772 55.078 147.132 0-31.34 25.406-56.74 56.745-56.74 53.716 0 53.655 46.86 53.606 84.88l-.003 3.39c0 57.71 35.271 107.18 85.432 128.04-7.492-15.41-11.695-32.72-11.695-51 0-55.04 32.313-75.54 69.867-99.36 29.881-18.95 63.08-40 85.96-82.24 11.938-22.04 18.717-47.277 18.717-74.102 0-16.495-2.563-32.392-7.314-47.314" clip-rule="evenodd"/><defs><linearGradient id="a" x1="882.997" x2="638.955" y1="27.113" y2="866.902" gradientUnits="userSpaceOnUse"><stop stop-color="#000014"/><stop offset="1" stop-color="#150426"/></linearGradient><linearGradient id="b" x1="1001.68" x2="790.326" y1="652.45" y2="1094.91" gradientUnits="userSpaceOnUse"><stop stop-color="#FF1639"/><stop offset="1" stop-color="#FF1639" stop-opacity="0"/></linearGradient></defs></svg>

<svg width="1280" height="1280" viewBox="0 0 1280 1280" fill="none" xmlns="http://www.w3.org/2000/svg">
	<path fill-rule="evenodd" clip-rule="evenodd"
		d="M815.039 94.6439C824.758 106.709 829.714 122.99 839.626 155.553L1056.17 866.901C976.107 825.368 889.072 795.413 797.281 779.252L656.29 302.798C653.983 295.002 646.822 289.654 638.693 289.654C630.542 289.654 623.368 295.03 621.08 302.853L481.795 779.011C389.579 795.1 302.146 825.109 221.741 866.793L439.347 155.388L439.348 155.388C449.291 122.882 454.262 106.629 463.982 94.5853C472.562 83.9531 483.723 75.6958 496.4 70.6002C510.76 64.8284 527.756 64.8284 561.749 64.8284H717.174C751.212 64.8284 768.23 64.8284 782.603 70.6123C795.292 75.7184 806.459 83.9923 815.039 94.6439Z"
		fill="url(#paint0_linear_709_110)" />
	<path fill-rule="evenodd" clip-rule="evenodd"
		d="M840.951 900.754C805.253 931.279 734.002 952.097 651.929 952.097C551.197 952.097 466.767 920.737 444.363 878.561C436.354 902.732 434.558 930.396 434.558 948.068C434.558 948.068 429.281 1034.84 489.636 1095.2C489.636 1063.86 515.042 1038.46 546.381 1038.46C600.097 1038.46 600.036 1085.32 599.987 1123.34C599.986 1124.48 599.984 1125.61 599.984 1126.73C599.984 1184.44 635.255 1233.91 685.416 1254.77C677.924 1239.36 673.721 1222.05 673.721 1203.77C673.721 1148.73 706.034 1128.23 743.588 1104.41L743.588 1104.41C773.469 1085.46 806.668 1064.41 829.548 1022.17C841.486 1000.13 848.265 974.893 848.265 948.068C848.265 931.573 845.702 915.676 840.951 900.754Z"
		fill="#FF5D01" />
	<path fill-rule="evenodd" clip-rule="evenodd"
		d="M840.951 900.754C805.253 931.279 734.002 952.097 651.929 952.097C551.197 952.097 466.767 920.737 444.363 878.561C436.354 902.732 434.558 930.396 434.558 948.068C434.558 948.068 429.281 1034.84 489.636 1095.2C489.636 1063.86 515.042 1038.46 546.381 1038.46C600.097 1038.46 600.036 1085.32 599.987 1123.34C599.986 1124.48 599.984 1125.61 599.984 1126.73C599.984 1184.44 635.255 1233.91 685.416 1254.77C677.924 1239.36 673.721 1222.05 673.721 1203.77C673.721 1148.73 706.034 1128.23 743.588 1104.41L743.588 1104.41C773.469 1085.46 806.668 1064.41 829.548 1022.17C841.486 1000.13 848.265 974.893 848.265 948.068C848.265 931.573 845.702 915.676 840.951 900.754Z"
		fill="url(#paint1_linear_709_110)" />
	<defs>
		<linearGradient id="paint0_linear_709_110" x1="882.997" y1="27.1132" x2="638.955" y2="866.902"
			gradientUnits="userSpaceOnUse">
			<stop stop-color="#000014" />
			<stop offset="1" stop-color="#150426" />
		</linearGradient>
		<linearGradient id="paint1_linear_709_110" x1="1001.68" y1="652.45" x2="790.326" y2="1094.91"
			gradientUnits="userSpaceOnUse">
			<stop stop-color="#FF1639" />
			<stop offset="1" stop-color="#FF1639" stop-opacity="0" />
		</linearGradient>
	</defs>
	<style xmlns="" id="autoconsent-prehide" />
</svg>
